X: 521
T: Dixie Hoedown
C:Jessie McReynolds
B: jims roots
M:4/4
L:1/8
Q: 1/4=100
K:G
V:1 
dc  |  "G"BABc BAGF  |  "C"ECEG c2 dc  |  "G"BABc BAGB  |  "D"AGFE Dd^c=c |
"G"BABc BAGF |  "C"ECEG c2 Ac  |  "G"BAGB "D"AGFA  | [1 "G"G[B,G][B,G][B,G] [B,2G] :| [2 "G"G[B,G][B,G][B,G] [B,4G] ||
|:"G"e[Bg][Bg][Bg] [Bg][Ba][g2B] | "Bm"e[Bf][Bf][Bg] [Bf]ed2 |"C" J[ee][ee][e2e] [ee][ed][ec2] | "G"J[e2e][d2B] [dB][dB][dB][dB] |
"D"DCDE FEFG |[1 A^GAB cBAF | "G"GFGA BABc| dcdd yJ[e2e]d2 :|
V:2 A^GAB cBAc | "G"BAGB "D"AGFA | "G"[B,G
V:B,G 
[B,G][B,G][B,2G] |]
% abcbook-tune_id 6298c245b208ba4f57dd0919


% abcbook-boost 0
% abcbook-tablature 
% abcbook-transpose 
% abcbook-lastupdated 1654178373997
% abcbook-soundfonts 
% abcbook-repeats 1


